X:1
T:# / 2 what if a day
%%score 1 { ( 2 3 ) | 4 }
L:1/8
Q:1/4=70
M:4/4
K:G
V:1 treble nm="Midi_75"
V:2 treble nm="Midi_47"
V:3 treble 
V:4 bass 
V:1
"^In moderate time""^What if a day" z8 | z8 | z8 | %3
w: |||
w: |||
"^Anon, elizabethan""^from: Reliquary of English Song , (F.Hunter Potter, 1915)" z8 |: %4
w: |
w: |
!mf! E2 ^DE F2 EF | G2 FE F4 | G2 FG!<(! A2 GA!<)! | cBAG A2 A>A | A2 G2 F2 F2 | E4 E4 | %10
w: What if a day, or a|month, or a year,|Crown thy de- lights with a|thou- sand sweet con- tent- ings, a|thou- sand sweet con-|tent- ings?|
w: ~Earth's but a point of the|world, and a man|Is but a point of the|Earth's com- par- ed cen- tre, the|Earths com- par- ed|cen- tre;|
!p! E2 ^DE F2 EF | G2 FG A4 | G2 FG A2 GA | cBAG A2 A>A |!pp! A2 G2 F2 F2 | E4 E4 |!f! B3 B A2 F2 | %17
w: May not the change of a|night or an hour|Cross thy de- lights with as|ma- ny sad tor- men- tings, as|man- y sad tor-|ment- ings?|For- tune, hon- our,|
w: Shall then the point of a|point be so vain,|As to tri- umph in a|sil- ly point's ad- ven- ture, a|sil- ly point's ad-|ven- ture?|All in haz- ard|
 G2 (FE) F4 |!p! B3 c d2 e2 | c4 B4 | B3 B A2 F2 | G2 (FE) F4 | B3 c d2 e2 | c4 B4 |!mf! G3 A B4 | %25
w: beau- ty, * youth,|Are but blos- soms|dy- ing;|Wan- ton plea- sure,|dot- ing * love,|Are but shad- ows|fly- ing.|All our joys|
w: that we * have,|Here is no- thing|bid- ing;|Days of plea- sure|are as * streams|Thro' fair mea- dows|glid- ing.|Wealth or woe,|
 F3 G A4 | E3 F G2 (FE) | (E2 ^D2) E4 | G3 A B4 | F3 G A4 | E3 F G2 (FE) | (E2 ^D2) E4 | z8 | z8 :| %34
w: are but toys,|I- dle thoughts de- *|ceiv- * ing,|None hath pow'r|of an hour|Of the lifes be- *|reav * ing.|||
w: time doth go,|Time hath no re- *|turn- * ing;|Se- cret fates|guide our states|Both in mirth and *|mourn * ing.|||
V:2
!p! G3 A B4 | F3 G A4 | E3 F G2 FE | E2 ^D2 [G,E]4 |:!mf! [G,E]2 z2 [CEF]2 z2 | [B,G]2 z2 F4 | %6
 [B,EG]2 z2!<(! [EGA]2 z2!<)! | cB[FA][EG] [FA]DEA, | [^DA]B,[EG]B, [EF][B,F][DF]B, | %9
 [G,E]2 z2 z F,G,B, |!p! EB,^DE FCEF | G2 FE ^D[I:staff +1]F,B,[I:staff -1]D | %12
 z[I:staff +1] G,B,[I:staff -1]E z (CEF) | cB[FA][EG] [FA]DEA, |!pp! [^DA]B,[EG]B, [EF]B,[DF]B, | %15
 [G,E]2 z2 z B,EG |!f! B(DGB ADFD) | G(B,^CE FA,DF |!p! B)(DGc [Ad]D[Be]G | c)(EFc BDG(A | %20
 B))(EGB AC^DA,) | [EG](B,FE FB,^DF | B)(DGc dG[Be]E | c)(EAc BF^DB,) |!mf! G3 A B4 | F3 G A4 | %26
 E3 F G2 FE | E2 ^D2 E4 | G3 A B4 | F3 G A4 | E3 F G2 FE | E2 ^D2 [G,E]4 | E3 F G2 FE | %33
 E2 ^D2 [G,E]4 :| %34
V:3
 z B, E2- E2 ^D2 | z A, D2 D2 ^C2 | z G, C2- CB, A,B, | C2 B,A, x4 |: x4 x4 | E4- (E2 ^D2) | %6
w: ||||||
 x4 x4 | [DG]2 x2 x4 | x4 x4 | x4 x4 | x4 x4 | B,E^D^C F2 z2 | x4 x4 | [DG]2 x2 x4 | x4 x4 | %15
w: |||||||||
 x4 x4 | x4 x4 | x8 | x8 | x8 | x8 | x4 x4 | x4 x4 | x4 x4 | z B, E2 [EG]2 ^D2 | z A, D2- D2 ^C2 | %26
w: |||||||||||
 z G, C2- CB,A,B, | C2 B,A, A,2 G,2 | z B, E2- E^D^CD | z A, D2- D^CB,C | z F, C2 CB,A,B, | %31
w: ||||* * * * \_- *|
 F,CB,A, x4 | z G,- C2 CB,A,G, | F,CB,A, x4 :| %34
w: |||
V:4
 E,3 C, B,,4 | !courtesy!=D,3 B,, A,,4 | !courtesy!=C,3 A,, E,,2 F,,G,, | A,,2 B,,2 E,,4 |: %4
 E,2 z2 A,,2 z2 | E,,2 z2 B,,4 | E,2 z2 C,2 z2 | G,,2 B,,2 D,2 C,2 | B,,8 | E,(E,,G,,B,, E, z z2) | %10
 E,2 z2 A,,2 z2 | E,,2 z2 B,,2 z2 | E,2 z2 A,,2 z2 | G,,2 B,,2 D,2 C,2 | B,,8 | %15
 E,(G,,B,,E, G, z z2 | G,4) F,2 D,2 | E,2 A,,2 D,4 | G,,2 E,,2 F,,2 G,,2 | A,,2 D,,2 G,,2 F,,2 | %20
 E,,4 A,,2 B,,2 | E,2 G,,2 B,,4 | G,,3 A,, B,,2 G,,2 | A,,4 B,,4 | E,3 C, B,,4 | %25
 !courtesy!=D,3 B,, A,,4 | !courtesy!=C,3 A,, E,,2 F,,G,, | A,,2 B,,2 E,,4 | E,2 D,C, B,,4 | %29
 D,2 ^C,B,, A,,4 | !courtesy!=C,2 B,,A,, E,,2 F,,G,, | A,,2 B,,2 E,,4 | %32
 !courtesy!=C,2 B,,A,, E,,2 F,,G,, | A,,2 B,,2 E,,4 :| %34

